X: 305550
M: 2/4
L: 1/16
K: D
dcdA GFED | efge dcBA | GABG FGAF | EFGA GFED |\
dcdA GFED | efge dcBA | fdcB ecBA | dBA^G A2 :|
|: B2 |\
efge dcd2 | (AGFE) DCD2 | EFGA Bcde | fddg dcBA |\
dcdA GFED | efge dcBA | BGFE AFED | GEDC D2 :|


